actions/symbolic/media-playlist-no-repeat-symbolic.svg

<?xml version="1.0" encoding="UTF-8" standalone="no"?>
<svg
   xmlns:dc="http://purl.org/dc/elements/1.1/"
   xmlns:cc="http://creativecommons.org/ns#"
   xmlns:rdf="http://www.w3.org/1999/02/22-rdf-syntax-ns#"
   xmlns:svg="http://www.w3.org/2000/svg"
   xmlns="http://www.w3.org/2000/svg"
   xmlns:sodipodi="http://sodipodi.sourceforge.net/DTD/sodipodi-0.dtd"
   xmlns:inkscape="http://www.inkscape.org/namespaces/inkscape"
   viewBox="0 0 16 16"
   id="svg2"
   version="1.1"
   inkscape:version="0.91 r13725"
   sodipodi:docname="media-playlist-no-repeat-symbolic.svg">
  <metadata
     id="metadata10">
    <rdf:RDF>
      <cc:Work
         rdf:about="">
        <dc:format>image/svg+xml</dc:format>
        <dc:type
           rdf:resource="http://purl.org/dc/dcmitype/StillImage" />
      </cc:Work>
    </rdf:RDF>
  </metadata>
  <sodipodi:namedview
     pagecolor="#ffffff"
     bordercolor="#666666"
     borderopacity="1"
     objecttolerance="10"
     gridtolerance="10"
     guidetolerance="10"
     inkscape:pageopacity="0"
     inkscape:pageshadow="2"
     inkscape:window-width="640"
     inkscape:window-height="480"
     id="namedview8"
     showgrid="false"
     inkscape:zoom="39.8125"
     inkscape:cx="3.0769231"
     inkscape:cy="8"
     inkscape:current-layer="svg2" />
  <defs
     id="defs3051">
    <style
       type="text/css"
       id="current-color-scheme">
      .ColorScheme-Text {
        color:#bebebe;
      }
      </style>
  </defs>
  <path
     style="color:#bebebe;fill:currentColor;fill-opacity:1;stroke:none"
     class="ColorScheme-Text"
     d="m 11.2,2 0,1.8 -6.1078125,0 1.2,1.2 L 11.2,5 11.2,6.8 13.6,4.4 11.2,2 Z M 2.9675782,3.2 2.2,3.9617187 4,5.7617184 4,7.4 5.2,7.4 5.2,6.9617184 9.2382816,11 5.2,11 l 0,-1.8 -2.4,2.4 2.4,2.4 0,-1.8 5.238282,0 1.8,1.8 L 13,13.232422 2.9675782,3.2 Z M 11.2,8.6 l 0,1.307813 1.2,1.2 0,-2.507813 -1.2,0 z"
     id="path6"
     inkscape:connector-curvature="0" />
</svg>

<svg xmlns="http://www.w3.org/2000/svg" viewBox="0 0 16 16">
  <path fill="#bebebe" d="M11.2 2v1.8H5.092l1.2 1.2H11.2v1.8l2.4-2.4zM2.968 3.2l-.768.762 1.8 1.8V7.4h1.2v-.438L9.238 11H5.2V9.2l-2.4 2.4L5.2 14v-1.8h5.238l1.8 1.8.762-.768zM11.2 8.6v1.308l1.2 1.2V8.6z"/>
</svg>
